src/app/assets/svg/telescope.svg

<?xml version="1.0" encoding="UTF-8"?>
<svg width="68px" height="60px" viewBox="0 0 68 60" version="1.1" xmlns="http://www.w3.org/2000/svg" xmlns:xlink="http://www.w3.org/1999/xlink">
    <defs>
        <polygon id="path-1" points="9.52380952e-06 0 67.9965714 0 67.9965714 59.9969952 9.52380952e-06 59.9969952"></polygon>
    </defs>
    <g id="Page-1" stroke="none" stroke-width="1" fill="none" fill-rule="evenodd">
        <g id="Blue-Sky-Product-Page" transform="translate(-441.000000, -3612.000000)">
            <g id="Group-25-Copy" style="mix-blend-mode: multiply;" transform="translate(441.000000, 3612.000000)">
                <polygon id="Rectangle-8" fill="#4273B9" points="1 3 66 3 66 58 1 58"></polygon>
                <g id="Page-1" transform="translate(0.000000, -0.000000)">
                    <mask id="mask-2" fill="white">
                        <use xlink:href="#path-1"></use>
                    </mask>
                    <g id="Clip-2"></g>
                    <path d="M62.1862952,22.9120191 L60.1129619,23.7893397 C59.7040095,23.9625455 59.2327714,23.7696268 59.0604857,23.358622 L51.7876286,6.00742584 C51.6154381,5.59642105 51.8073429,5.12292823 52.2162952,4.94972249 L54.2896286,4.07240191 C54.6986762,3.89929187 55.1699143,4.09211483 55.3422,4.50311962 L62.6150571,21.8544115 C62.7873429,22.2654163 62.5953429,22.7389091 62.1862952,22.9120191 L62.1862952,22.9120191 Z M54.6133429,23.2476172 L42.3624857,28.4319234 C40.8108667,24.730201 36.5664857,22.9932632 32.8823905,24.5522105 C29.1982952,26.1112536 27.4696286,30.3758469 29.0211524,34.0776651 L28.1068667,34.464555 C26.7741048,35.0284785 25.2386762,34.4001531 24.6773429,33.0610144 L20.7773429,23.7563254 C20.2161048,22.4172823 20.8414381,20.8745072 22.1742,20.3103923 L48.6806762,9.09364593 C50.0135333,8.52962679 51.5488667,9.15804785 52.1102,10.4971866 L56.0102,19.8016842 C56.5715333,21.140823 55.9462,22.6835981 54.6133429,23.2476172 L54.6133429,23.2476172 Z M45.601819,54.7477129 L45.601819,54.7477129 C44.9169619,55.028 44.1355333,54.697378 43.8564857,54.009244 L36.6884857,36.3307751 C36.0980095,36.4596746 35.5013429,36.4801531 34.9226762,36.4017799 L27.7835333,54.009244 C27.5044857,54.697378 26.7230571,55.028 26.0381048,54.7477129 C25.3532476,54.4673301 25.0242,53.6821627 25.3033429,52.993933 L32.4528667,35.3606316 C31.7807714,34.836134 31.2287714,34.1371866 30.8749619,33.2930718 C29.7750571,30.6688612 31.000581,27.645512 33.6123905,26.5402488 C36.2240095,25.4349856 39.2330571,26.6663732 40.3330571,29.2906794 C41.1967714,31.3513493 40.6260095,33.6576651 39.0767714,35.0885742 L46.3367714,52.993933 C46.615819,53.6821627 46.2867714,54.4673301 45.601819,54.7477129 L45.601819,54.7477129 Z M21.7384857,32.331445 L12.7750571,36.1244593 C12.319819,36.3170909 11.7954381,36.1025455 11.6037238,35.6451292 L9.7474381,31.2165167 C9.55572381,30.7591962 9.76924762,30.2322105 10.2244857,30.0395789 L19.1880095,26.2464689 C19.6431524,26.0538373 20.1676286,26.2684785 20.3592476,26.725799 L22.2155333,31.1544115 C22.4072476,31.6118278 22.1936286,32.1388134 21.7384857,32.331445 L21.7384857,32.331445 Z M10.6547714,39.202067 L9.05048571,39.8810144 C8.65734286,40.0473301 8.20439048,39.8619713 8.03886667,39.4669474 L4.36915238,30.7119234 C4.20362857,30.3168995 4.38800952,29.8617799 4.78115238,29.6954641 L6.3854381,29.0165167 C6.77858095,28.850201 7.23153333,29.0354641 7.39705714,29.4305837 L11.0667714,38.1856077 C11.2323905,38.5806316 11.0479143,39.0357512 10.6547714,39.202067 L10.6547714,39.202067 Z M9.52380952e-06,59.9969952 L67.996581,59.9969952 L67.996581,-3.8277512e-05 L9.52380952e-06,-3.8277512e-05 L9.52380952e-06,59.9969952 Z" id="Fill-1" fill="#FFFFFF" mask="url(#mask-2)"></path>
                </g>
            </g>
        </g>
    </g>
</svg>

<svg xmlns="http://www.w3.org/2000/svg" xmlns:xlink="http://www.w3.org/1999/xlink" width="68" height="60"><defs/><defs><path id="a" d="M0 0h67.997v59.997H0z"/></defs><g fill="none" fill-rule="evenodd" style="mix-blend-mode:multiply"><path fill="#4273B9" d="M1 3h65v55H1z"/><g><mask id="b" fill="#fff"><use xlink:href="#a"/></mask><path fill="#FFF" d="M62.186 22.912l-2.073.877a.802.802 0 01-1.053-.43L51.788 6.007a.81.81 0 01.428-1.057l2.074-.878a.802.802 0 011.052.431l7.273 17.351a.809.809 0 01-.429 1.058zm-7.573.336l-12.25 5.184c-1.552-3.702-5.797-5.439-9.48-3.88-3.685 1.56-5.413 5.824-3.862 9.526l-.914.387a2.614 2.614 0 01-3.43-1.404l-3.9-9.305a2.636 2.636 0 011.397-3.446L48.681 9.094a2.614 2.614 0 013.43 1.403l3.9 9.305a2.636 2.636 0 01-1.398 3.446zm-9.011 31.5a1.337 1.337 0 01-1.746-.739l-7.168-17.678c-.59.129-1.187.15-1.765.07l-7.14 17.608a1.337 1.337 0 01-1.745.739 1.348 1.348 0 01-.735-1.754l7.15-17.633a5.128 5.128 0 01-1.578-2.068c-1.1-2.624.126-5.647 2.737-6.753a5.122 5.122 0 016.721 2.75 5.175 5.175 0 01-1.256 5.799l7.26 17.905a1.348 1.348 0 01-.735 1.754zM21.738 32.33l-8.963 3.793a.893.893 0 01-1.171-.479l-1.857-4.428a.9.9 0 01.477-1.177l8.964-3.794a.893.893 0 011.171.48l1.857 4.428a.9.9 0 01-.478 1.177zm-11.083 6.871l-1.605.679a.771.771 0 01-1.011-.414l-3.67-8.755a.777.777 0 01.412-1.017l1.604-.678a.771.771 0 011.012.414l3.67 8.755a.777.777 0 01-.412 1.016zM0 59.997h67.997V0H0v59.997z" mask="url(#b)"/></g></g></svg>
